X:14
T:score109
L:1/8
Q:1/4=96
M:4/4
I:linebreak $
K:F
 a4 g/f/e/f/ g/f/e/d/ | c4 d/c/=B/c/ d/c/_B/A/ | G3 F EFfd |$ c4 .B2 z2 | B3 c/B/ ABbg | %5
 f4 .e2 z2 |$ e3 f/e/ ^de=d'c' | c'4 bagf | (^fg).a.b (=Bc).d.e |$ f2 z2 z4 | %10
